X:1
T:Ballindalloch Castle [1]
T:Ballindalloch Castle [1]
T:William Marshall (1748-1833)
C:William Marshall (1748-1833)
L:1/8
M:4/4
K:Bb
V:1 treble 
V:1
 d/c/ | B>c B<F{Bc} d<B Bd/c/ | B>c B<F{Bc} d>c cd/c/ | B>cBF dc ed | f>g f/g/f/e/ dBB :| d/e/ | %6
 f>gfd ed gf | B>dfd g/f/e/d/ cd/e/ | f>gfd cBdc | B>G F/G/B/c/{Bc} d>B Bd/e/ | f>gfd ed gf | %11
 B/c/d/e/ f/g/a/b/ g/f/e/d/ c/d/e/f/ | gf ed cB dc | B>G F/G/B/c/{Bc} d>B B || %14

